images/50455415.svg

<?xml version="1.0" encoding="UTF-8"?>
<svg xmlns="http://www.w3.org/2000/svg" xmlns:xlink="http://www.w3.org/1999/xlink" width="300pt" height="300pt" viewBox="0 0 300 300" version="1.1">
<defs>
<g>
<symbol overflow="visible" id="glyph0-0">
<path style="stroke:none;" d="M 0.453125 1.59375 L 0.453125 -6.34375 L 4.953125 -6.34375 L 4.953125 1.59375 Z M 0.953125 1.09375 L 4.453125 1.09375 L 4.453125 -5.84375 L 0.953125 -5.84375 Z M 0.953125 1.09375 "/>
</symbol>
<symbol overflow="visible" id="glyph0-1">
<path style="stroke:none;" d="M 0.890625 -6.5625 L 1.765625 -6.5625 L 1.765625 0 L 0.890625 0 Z M 0.890625 -6.5625 "/>
</symbol>
<symbol overflow="visible" id="glyph0-2">
<path style="stroke:none;" d="M 3.546875 -5.953125 C 2.898438 -5.953125 2.382812 -5.710938 2 -5.234375 C 1.625 -4.753906 1.4375 -4.101562 1.4375 -3.28125 C 1.4375 -2.445312 1.625 -1.789062 2 -1.3125 C 2.382812 -0.832031 2.898438 -0.59375 3.546875 -0.59375 C 4.191406 -0.59375 4.703125 -0.832031 5.078125 -1.3125 C 5.453125 -1.789062 5.640625 -2.445312 5.640625 -3.28125 C 5.640625 -4.101562 5.453125 -4.753906 5.078125 -5.234375 C 4.703125 -5.710938 4.191406 -5.953125 3.546875 -5.953125 Z M 3.546875 -6.6875 C 4.460938 -6.6875 5.195312 -6.375 5.75 -5.75 C 6.300781 -5.132812 6.578125 -4.3125 6.578125 -3.28125 C 6.578125 -2.238281 6.300781 -1.410156 5.75 -0.796875 C 5.195312 -0.179688 4.460938 0.125 3.546875 0.125 C 2.617188 0.125 1.878906 -0.179688 1.328125 -0.796875 C 0.773438 -1.410156 0.5 -2.238281 0.5 -3.28125 C 0.5 -4.3125 0.773438 -5.132812 1.328125 -5.75 C 1.878906 -6.375 2.617188 -6.6875 3.546875 -6.6875 Z M 3.546875 -6.6875 "/>
</symbol>
<symbol overflow="visible" id="glyph0-3">
<path style="stroke:none;" d="M 0.890625 -6.5625 L 2.078125 -6.5625 L 4.984375 -1.078125 L 4.984375 -6.5625 L 5.84375 -6.5625 L 5.84375 0 L 4.65625 0 L 1.75 -5.484375 L 1.75 0 L 0.890625 0 Z M 0.890625 -6.5625 "/>
</symbol>
<symbol overflow="visible" id="glyph0-4">
<path style="stroke:none;" d="M 0.890625 -6.5625 L 1.765625 -6.5625 L 1.765625 -3.875 L 5 -3.875 L 5 -6.5625 L 5.890625 -6.5625 L 5.890625 0 L 5 0 L 5 -3.125 L 1.765625 -3.125 L 1.765625 0 L 0.890625 0 Z M 0.890625 -6.5625 "/>
</symbol>
</g>
</defs>
<g id="surface10725">
<rect x="0" y="0" width="300" height="300" style="fill:rgb(100%,100%,100%);fill-opacity:1;stroke:none;"/>
<path style="fill:none;stroke-width:1.2;stroke-linecap:butt;stroke-linejoin:miter;stroke:rgb(0%,0%,0%);stroke-opacity:1;stroke-miterlimit:10;" d="M 255.769531 197.292969 L 250.234375 177.339844 "/>
<path style=" stroke:none;fill-rule:nonzero;fill:rgb(100%,100%,100%);fill-opacity:1;" d="M 254.769531 191.792969 L 257.769531 191.792969 L 257.769531 202.792969 L 254.769531 202.792969 Z M 254.769531 191.792969 "/>
<g style="fill:rgb(0%,0%,0%);fill-opacity:1;">
  <use xlink:href="#glyph0-1" x="254.769531" y="200.456055"/>
</g>
<path style="fill:none;stroke-width:1.2;stroke-linecap:butt;stroke-linejoin:miter;stroke:rgb(0%,0%,0%);stroke-opacity:1;stroke-miterlimit:10;" d="M 250.234375 177.339844 L 230.1875 172.152344 "/>
<path style="fill:none;stroke-width:1.2;stroke-linecap:butt;stroke-linejoin:miter;stroke:rgb(0%,0%,0%);stroke-opacity:1;stroke-miterlimit:10;" d="M 249.449219 172.101562 L 233.414062 167.953125 "/>
<path style="fill:none;stroke-width:1.2;stroke-linecap:butt;stroke-linejoin:miter;stroke:rgb(0%,0%,0%);stroke-opacity:1;stroke-miterlimit:10;" d="M 264.75 162.570312 L 250.234375 177.339844 "/>
<path style="fill:none;stroke-width:1.2;stroke-linecap:butt;stroke-linejoin:miter;stroke:rgb(0%,0%,0%);stroke-opacity:1;stroke-miterlimit:10;" d="M 230.1875 172.152344 L 224.65625 152.199219 "/>
<path style="fill:none;stroke-width:1.2;stroke-linecap:butt;stroke-linejoin:miter;stroke:rgb(0%,0%,0%);stroke-opacity:1;stroke-miterlimit:10;" d="M 224.65625 152.199219 L 239.171875 137.429688 "/>
<path style="fill:none;stroke-width:1.2;stroke-linecap:butt;stroke-linejoin:miter;stroke:rgb(0%,0%,0%);stroke-opacity:1;stroke-miterlimit:10;" d="M 222.632812 147.308594 L 234.242188 135.492188 "/>
<path style="fill:none;stroke-width:1.2;stroke-linecap:butt;stroke-linejoin:miter;stroke:rgb(0%,0%,0%);stroke-opacity:1;stroke-miterlimit:10;" d="M 224.65625 152.199219 L 204.609375 147.011719 "/>
<path style="fill:none;stroke-width:1.2;stroke-linecap:butt;stroke-linejoin:miter;stroke:rgb(0%,0%,0%);stroke-opacity:1;stroke-miterlimit:10;" d="M 239.171875 137.429688 L 259.21875 142.617188 "/>
<path style="fill:none;stroke-width:1.2;stroke-linecap:butt;stroke-linejoin:miter;stroke:rgb(0%,0%,0%);stroke-opacity:1;stroke-miterlimit:10;" d="M 239.171875 137.429688 L 233.636719 117.476562 "/>
<path style="fill:none;stroke-width:1.2;stroke-linecap:butt;stroke-linejoin:miter;stroke:rgb(0%,0%,0%);stroke-opacity:1;stroke-miterlimit:10;" d="M 259.21875 142.617188 L 264.75 162.570312 "/>
<path style="fill:none;stroke-width:1.2;stroke-linecap:butt;stroke-linejoin:miter;stroke:rgb(0%,0%,0%);stroke-opacity:1;stroke-miterlimit:10;" d="M 255.074219 145.914062 L 259.5 161.875 "/>
<path style="fill:none;stroke-width:1.2;stroke-linecap:butt;stroke-linejoin:miter;stroke:rgb(0%,0%,0%);stroke-opacity:1;stroke-miterlimit:10;" d="M 235.375 119.183594 L 242.632812 111.800781 "/>
<path style="fill:none;stroke-width:1.2;stroke-linecap:butt;stroke-linejoin:miter;stroke:rgb(100%,0%,0%);stroke-opacity:1;stroke-miterlimit:10;" d="M 242.632812 111.800781 L 249.890625 104.414062 "/>
<path style="fill:none;stroke-width:1.2;stroke-linecap:butt;stroke-linejoin:miter;stroke:rgb(0%,0%,0%);stroke-opacity:1;stroke-miterlimit:10;" d="M 231.898438 115.769531 L 239.15625 108.382812 "/>
<path style="fill:none;stroke-width:1.2;stroke-linecap:butt;stroke-linejoin:miter;stroke:rgb(100%,0%,0%);stroke-opacity:1;stroke-miterlimit:10;" d="M 239.15625 108.382812 L 246.414062 101 "/>
<path style="fill:none;stroke-width:1.2;stroke-linecap:butt;stroke-linejoin:miter;stroke:rgb(0%,0%,0%);stroke-opacity:1;stroke-miterlimit:10;" d="M 233.636719 117.476562 L 223.613281 114.882812 "/>
<path style="fill:none;stroke-width:1.2;stroke-linecap:butt;stroke-linejoin:miter;stroke:rgb(0%,0%,100%);stroke-opacity:1;stroke-miterlimit:10;" d="M 223.613281 114.882812 L 213.589844 112.289062 "/>
<path style=" stroke:none;fill-rule:nonzero;fill:rgb(100%,100%,100%);fill-opacity:1;" d="M 244.152344 97.207031 L 252.152344 97.207031 L 252.152344 108.207031 L 244.152344 108.207031 Z M 244.152344 97.207031 "/>
<g style="fill:rgb(100%,0%,0%);fill-opacity:1;">
  <use xlink:href="#glyph0-2" x="244.152344" y="105.870117"/>
</g>
<path style="fill:none;stroke-width:1.2;stroke-linecap:butt;stroke-linejoin:miter;stroke:rgb(0%,0%,100%);stroke-opacity:1;stroke-miterlimit:10;" d="M 213.589844 112.289062 L 206.332031 119.675781 "/>
<path style="fill:none;stroke-width:1.2;stroke-linecap:butt;stroke-linejoin:miter;stroke:rgb(0%,0%,0%);stroke-opacity:1;stroke-miterlimit:10;" d="M 206.332031 119.675781 L 199.074219 127.058594 "/>
<path style=" stroke:none;fill-rule:nonzero;fill:rgb(100%,100%,100%);fill-opacity:1;" d="M 206.589844 106.789062 L 220.589844 106.789062 L 220.589844 117.789062 L 206.589844 117.789062 Z M 206.589844 106.789062 "/>
<g style="fill:rgb(0%,0%,100%);fill-opacity:1;">
  <use xlink:href="#glyph0-3" x="206.589844" y="115.452148"/>
  <use xlink:href="#glyph0-4" x="213.567383" y="115.452148"/>
</g>
<path style="fill:none;stroke-width:1.2;stroke-linecap:butt;stroke-linejoin:miter;stroke:rgb(0%,0%,0%);stroke-opacity:1;stroke-miterlimit:10;" d="M 199.6875 124.699219 L 189.664062 122.109375 "/>
<path style="fill:none;stroke-width:1.2;stroke-linecap:butt;stroke-linejoin:miter;stroke:rgb(100%,0%,0%);stroke-opacity:1;stroke-miterlimit:10;" d="M 189.664062 122.109375 L 179.640625 119.515625 "/>
<path style="fill:none;stroke-width:1.2;stroke-linecap:butt;stroke-linejoin:miter;stroke:rgb(0%,0%,0%);stroke-opacity:1;stroke-miterlimit:10;" d="M 198.464844 129.417969 L 188.441406 126.824219 "/>
<path style="fill:none;stroke-width:1.2;stroke-linecap:butt;stroke-linejoin:miter;stroke:rgb(100%,0%,0%);stroke-opacity:1;stroke-miterlimit:10;" d="M 188.441406 126.824219 L 178.417969 124.230469 "/>
<path style="fill:none;stroke-width:1.2;stroke-linecap:butt;stroke-linejoin:miter;stroke:rgb(0%,0%,0%);stroke-opacity:1;stroke-miterlimit:10;" d="M 199.074219 127.058594 L 204.609375 147.011719 "/>
<path style=" stroke:none;fill-rule:nonzero;fill:rgb(100%,100%,100%);fill-opacity:1;" d="M 171.027344 116.375 L 179.027344 116.375 L 179.027344 127.375 L 171.027344 127.375 Z M 171.027344 116.375 "/>
<g style="fill:rgb(100%,0%,0%);fill-opacity:1;">
  <use xlink:href="#glyph0-2" x="171.027344" y="125.038086"/>
</g>
<path style="fill:none;stroke-width:1.2;stroke-linecap:butt;stroke-linejoin:miter;stroke:rgb(0%,0%,0%);stroke-opacity:1;stroke-miterlimit:10;" d="M 204.609375 147.011719 L 190.09375 161.78125 "/>
<path style="fill:none;stroke-width:1.2;stroke-linecap:butt;stroke-linejoin:miter;stroke:rgb(0%,0%,0%);stroke-opacity:1;stroke-miterlimit:10;" d="M 199.683594 145.074219 L 188.070312 156.890625 "/>
<path style="fill:none;stroke-width:1.2;stroke-linecap:butt;stroke-linejoin:miter;stroke:rgb(0%,0%,0%);stroke-opacity:1;stroke-miterlimit:10;" d="M 190.09375 161.78125 L 180.070312 159.1875 "/>
<path style="fill:none;stroke-width:1.2;stroke-linecap:butt;stroke-linejoin:miter;stroke:rgb(0%,0%,100%);stroke-opacity:1;stroke-miterlimit:10;" d="M 180.070312 159.1875 L 170.046875 156.597656 "/>
<path style="fill:none;stroke-width:1.2;stroke-linecap:butt;stroke-linejoin:miter;stroke:rgb(0%,0%,100%);stroke-opacity:1;stroke-miterlimit:10;" d="M 170.046875 156.597656 L 162.789062 163.980469 "/>
<path style="fill:none;stroke-width:1.2;stroke-linecap:butt;stroke-linejoin:miter;stroke:rgb(0%,0%,0%);stroke-opacity:1;stroke-miterlimit:10;" d="M 162.789062 163.980469 L 155.53125 171.363281 "/>
<path style=" stroke:none;fill-rule:nonzero;fill:rgb(100%,100%,100%);fill-opacity:1;" d="M 163.046875 151.097656 L 177.046875 151.097656 L 177.046875 162.097656 L 163.046875 162.097656 Z M 163.046875 151.097656 "/>
<g style="fill:rgb(0%,0%,100%);fill-opacity:1;">
  <use xlink:href="#glyph0-3" x="163.046875" y="159.760742"/>
  <use xlink:href="#glyph0-4" x="170.024414" y="159.760742"/>
</g>
<path style="fill:none;stroke-width:1.2;stroke-linecap:butt;stroke-linejoin:miter;stroke:rgb(0%,0%,0%);stroke-opacity:1;stroke-miterlimit:10;" d="M 155.53125 171.363281 L 135.484375 166.179688 "/>
<path style="fill:none;stroke-width:1.2;stroke-linecap:butt;stroke-linejoin:miter;stroke:rgb(0%,0%,0%);stroke-opacity:1;stroke-miterlimit:10;" d="M 135.484375 166.179688 L 129.953125 146.226562 "/>
<path style="fill:none;stroke-width:1.2;stroke-linecap:butt;stroke-linejoin:miter;stroke:rgb(0%,0%,0%);stroke-opacity:1;stroke-miterlimit:10;" d="M 130.238281 165.484375 L 125.8125 149.523438 "/>
<path style="fill:none;stroke-width:1.2;stroke-linecap:butt;stroke-linejoin:miter;stroke:rgb(0%,0%,0%);stroke-opacity:1;stroke-miterlimit:10;" d="M 120.972656 180.949219 L 135.484375 166.179688 "/>
<path style="fill:none;stroke-width:1.2;stroke-linecap:butt;stroke-linejoin:miter;stroke:rgb(0%,0%,0%);stroke-opacity:1;stroke-miterlimit:10;" d="M 129.953125 146.226562 L 109.90625 141.039062 "/>
<path style="fill:none;stroke-width:1.2;stroke-linecap:butt;stroke-linejoin:miter;stroke:rgb(0%,0%,0%);stroke-opacity:1;stroke-miterlimit:10;" d="M 109.90625 141.039062 L 107.140625 131.0625 "/>
<path style="fill:none;stroke-width:1.2;stroke-linecap:butt;stroke-linejoin:miter;stroke:rgb(100%,0%,0%);stroke-opacity:1;stroke-miterlimit:10;" d="M 107.140625 131.0625 L 104.371094 121.085938 "/>
<path style="fill:none;stroke-width:1.2;stroke-linecap:butt;stroke-linejoin:miter;stroke:rgb(0%,0%,0%);stroke-opacity:1;stroke-miterlimit:10;" d="M 109.90625 141.039062 L 95.390625 155.808594 "/>
<path style="fill:none;stroke-width:1.2;stroke-linecap:butt;stroke-linejoin:miter;stroke:rgb(0%,0%,0%);stroke-opacity:1;stroke-miterlimit:10;" d="M 111.929688 145.933594 L 100.316406 157.746094 "/>
<path style=" stroke:none;fill-rule:nonzero;fill:rgb(100%,100%,100%);fill-opacity:1;" d="M 97.371094 115.585938 L 112.371094 115.585938 L 112.371094 126.585938 L 97.371094 126.585938 Z M 97.371094 115.585938 "/>
<g style="fill:rgb(100%,0%,0%);fill-opacity:1;">
  <use xlink:href="#glyph0-4" x="97.371094" y="124.249023"/>
  <use xlink:href="#glyph0-2" x="104.385742" y="124.249023"/>
</g>
<path style="fill:none;stroke-width:1.2;stroke-linecap:butt;stroke-linejoin:miter;stroke:rgb(0%,0%,0%);stroke-opacity:1;stroke-miterlimit:10;" d="M 95.390625 155.808594 L 100.925781 175.761719 "/>
<path style="fill:none;stroke-width:1.2;stroke-linecap:butt;stroke-linejoin:miter;stroke:rgb(0%,0%,0%);stroke-opacity:1;stroke-miterlimit:10;" d="M 95.390625 155.808594 L 75.34375 150.621094 "/>
<path style="fill:none;stroke-width:1.2;stroke-linecap:butt;stroke-linejoin:miter;stroke:rgb(0%,0%,0%);stroke-opacity:1;stroke-miterlimit:10;" d="M 100.925781 175.761719 L 120.972656 180.949219 "/>
<path style="fill:none;stroke-width:1.2;stroke-linecap:butt;stroke-linejoin:miter;stroke:rgb(0%,0%,0%);stroke-opacity:1;stroke-miterlimit:10;" d="M 104.148438 171.5625 L 120.1875 175.710938 "/>
<path style="fill:none;stroke-width:1.2;stroke-linecap:butt;stroke-linejoin:miter;stroke:rgb(0%,0%,0%);stroke-opacity:1;stroke-miterlimit:10;" d="M 75.34375 150.621094 L 69.8125 130.667969 "/>
<path style="fill:none;stroke-width:1.2;stroke-linecap:butt;stroke-linejoin:miter;stroke:rgb(0%,0%,0%);stroke-opacity:1;stroke-miterlimit:10;" d="M 70.097656 149.929688 L 65.667969 133.964844 "/>
<path style="fill:none;stroke-width:1.2;stroke-linecap:butt;stroke-linejoin:miter;stroke:rgb(0%,0%,0%);stroke-opacity:1;stroke-miterlimit:10;" d="M 60.828125 165.390625 L 75.34375 150.621094 "/>
<path style="fill:none;stroke-width:1.2;stroke-linecap:butt;stroke-linejoin:miter;stroke:rgb(0%,0%,0%);stroke-opacity:1;stroke-miterlimit:10;" d="M 69.8125 130.667969 L 49.765625 125.484375 "/>
<path style="fill:none;stroke-width:1.2;stroke-linecap:butt;stroke-linejoin:miter;stroke:rgb(0%,0%,0%);stroke-opacity:1;stroke-miterlimit:10;" d="M 49.765625 125.484375 L 35.25 140.25 "/>
<path style="fill:none;stroke-width:1.2;stroke-linecap:butt;stroke-linejoin:miter;stroke:rgb(0%,0%,0%);stroke-opacity:1;stroke-miterlimit:10;" d="M 51.789062 130.375 L 40.175781 142.191406 "/>
<path style="fill:none;stroke-width:1.2;stroke-linecap:butt;stroke-linejoin:miter;stroke:rgb(0%,0%,0%);stroke-opacity:1;stroke-miterlimit:10;" d="M 35.25 140.25 L 38.015625 150.230469 "/>
<path style="fill:none;stroke-width:1.2;stroke-linecap:butt;stroke-linejoin:miter;stroke:rgb(0%,0%,100%);stroke-opacity:1;stroke-miterlimit:10;" d="M 38.015625 150.230469 L 40.78125 160.207031 "/>
<path style="fill:none;stroke-width:1.2;stroke-linecap:butt;stroke-linejoin:miter;stroke:rgb(0%,0%,100%);stroke-opacity:1;stroke-miterlimit:10;" d="M 40.78125 160.207031 L 50.804688 162.796875 "/>
<path style="fill:none;stroke-width:1.2;stroke-linecap:butt;stroke-linejoin:miter;stroke:rgb(0%,0%,0%);stroke-opacity:1;stroke-miterlimit:10;" d="M 50.804688 162.796875 L 60.828125 165.390625 "/>
<path style="fill:none;stroke-width:1.2;stroke-linecap:butt;stroke-linejoin:miter;stroke:rgb(0%,0%,100%);stroke-opacity:1;stroke-miterlimit:10;" d="M 44.007812 156.007812 L 52.027344 158.082031 "/>
<path style="fill:none;stroke-width:1.2;stroke-linecap:butt;stroke-linejoin:miter;stroke:rgb(0%,0%,0%);stroke-opacity:1;stroke-miterlimit:10;" d="M 52.027344 158.082031 L 60.046875 160.15625 "/>
<path style=" stroke:none;fill-rule:nonzero;fill:rgb(100%,100%,100%);fill-opacity:1;" d="M 37.78125 154.707031 L 44.78125 154.707031 L 44.78125 165.707031 L 37.78125 165.707031 Z M 37.78125 154.707031 "/>
<g style="fill:rgb(0%,0%,100%);fill-opacity:1;">
  <use xlink:href="#glyph0-3" x="37.78125" y="163.370117"/>
</g>
</g>
</svg>

<svg xmlns="http://www.w3.org/2000/svg" xmlns:xlink="http://www.w3.org/1999/xlink" width="300pt" height="300pt" viewBox="0 0 300 300"><defs><symbol overflow="visible"><path d="M.453 1.594v-7.938h4.5v7.938zm.5-.5h3.5v-6.938h-3.5zm0 0"/></symbol><symbol overflow="visible" id="a"><path d="M.89-6.563h.876V0H.89zm0 0"/></symbol><symbol overflow="visible" id="b"><path d="M3.547-5.953c-.65 0-1.164.242-1.547.72-.375.48-.563 1.13-.563 1.952 0 .835.188 1.49.563 1.967.383.48.898.72 1.547.72.644 0 1.156-.24 1.53-.72.376-.476.564-1.132.564-1.968 0-.822-.187-1.474-.562-1.954-.375-.477-.887-.72-1.53-.72zm0-.734c.914 0 1.648.312 2.203.937.55.617.828 1.438.828 2.47 0 1.042-.277 1.87-.828 2.483-.555.617-1.29.922-2.203.922-.93 0-1.668-.305-2.22-.922C.774-1.41.5-2.237.5-3.28c0-1.033.273-1.853.828-2.47.55-.625 1.29-.938 2.22-.938zm0 0"/></symbol><symbol overflow="visible" id="c"><path d="M.89-6.563H2.08l2.906 5.485v-5.484h.86V0H4.656L1.75-5.484V0H.89zm0 0"/></symbol><symbol overflow="visible" id="d"><path d="M.89-6.563h.876v2.688H5v-2.688h.89V0H5v-3.125H1.766V0H.89zm0 0"/></symbol></defs><g><path fill="#fff" d="M0 0h300v300H0z"/><path d="M255.77 197.293l-5.536-19.953" stroke-width="1.2" stroke="#000" stroke-miterlimit="10" fill="none"/><path d="M254.77 191.793h3v11h-3zm0 0" fill="#fff"/><use xlink:href="#a" x="254.77" y="200.456"/><path d="M250.234 177.34l-20.047-5.188M249.45 172.102l-16.036-4.15M264.75 162.57l-14.516 14.77M230.188 172.152l-5.532-19.953M224.656 152.2l14.516-14.77M222.633 147.31l11.61-11.818M224.656 152.2l-20.047-5.188M239.172 137.43l20.047 5.187M239.172 137.43l-5.535-19.953M259.22 142.617l5.53 19.953M255.074 145.914l4.426 15.96M235.375 119.184l7.258-7.383" stroke-width="1.2" stroke="#000" stroke-miterlimit="10" fill="none"/><path d="M242.633 111.8l7.258-7.386" stroke-width="1.2" stroke="#f00" stroke-miterlimit="10" fill="none"/><path d="M231.898 115.77l7.258-7.387" stroke-width="1.2" stroke="#000" stroke-miterlimit="10" fill="none"/><path d="M239.156 108.383l7.258-7.383" stroke-width="1.2" stroke="#f00" stroke-miterlimit="10" fill="none"/><path d="M233.637 117.477l-10.024-2.594" stroke-width="1.2" stroke="#000" stroke-miterlimit="10" fill="none"/><path d="M223.613 114.883l-10.023-2.594" stroke-width="1.2" stroke="#00f" stroke-miterlimit="10" fill="none"/><path d="M244.152 97.207h8v11h-8zm0 0" fill="#fff"/><use xlink:href="#b" x="244.152" y="105.87" fill="#f00"/><path d="M213.59 112.29l-7.258 7.386" stroke-width="1.2" stroke="#00f" stroke-miterlimit="10" fill="none"/><path d="M206.332 119.676l-7.258 7.383" stroke-width="1.2" stroke="#000" stroke-miterlimit="10" fill="none"/><path d="M206.59 106.79h14v11h-14zm0 0" fill="#fff"/><g fill="#00f"><use xlink:href="#c" x="206.59" y="115.452"/><use xlink:href="#d" x="213.567" y="115.452"/></g><path d="M199.688 124.7l-10.024-2.59" stroke-width="1.2" stroke="#000" stroke-miterlimit="10" fill="none"/><path d="M189.664 122.11l-10.023-2.594" stroke-width="1.2" stroke="#f00" stroke-miterlimit="10" fill="none"/><path d="M198.465 129.418l-10.024-2.594" stroke-width="1.2" stroke="#000" stroke-miterlimit="10" fill="none"/><path d="M188.44 126.824l-10.022-2.594" stroke-width="1.2" stroke="#f00" stroke-miterlimit="10" fill="none"/><path d="M199.074 127.06l5.535 19.952" stroke-width="1.2" stroke="#000" stroke-miterlimit="10" fill="none"/><path d="M171.027 116.375h8v11h-8zm0 0" fill="#fff"/><use xlink:href="#b" x="171.027" y="125.038" fill="#f00"/><path d="M204.61 147.012l-14.516 14.77M199.684 145.074L188.07 156.89M190.094 161.78l-10.024-2.593" stroke-width="1.2" stroke="#000" stroke-miterlimit="10" fill="none"/><path d="M180.07 159.188l-10.023-2.59M170.047 156.598l-7.258 7.382" stroke-width="1.2" stroke="#00f" stroke-miterlimit="10" fill="none"/><path d="M162.79 163.98l-7.26 7.383" stroke-width="1.2" stroke="#000" stroke-miterlimit="10" fill="none"/><path d="M163.047 151.098h14v11h-14zm0 0" fill="#fff"/><g fill="#00f"><use xlink:href="#c" x="163.047" y="159.761"/><use xlink:href="#d" x="170.024" y="159.761"/></g><path d="M155.53 171.363l-20.046-5.183M135.484 166.18l-5.53-19.953M130.238 165.484l-4.425-15.96M120.973 180.95l14.51-14.77M129.953 146.227l-20.047-5.188M109.906 141.04l-2.765-9.977" stroke-width="1.2" stroke="#000" stroke-miterlimit="10" fill="none"/><path d="M107.14 131.063l-2.77-9.977" stroke-width="1.2" stroke="#f00" stroke-miterlimit="10" fill="none"/><path d="M109.906 141.04L95.39 155.81M111.93 145.934l-11.614 11.812" stroke-width="1.2" stroke="#000" stroke-miterlimit="10" fill="none"/><path d="M97.37 115.586h15v11h-15zm0 0" fill="#fff"/><g fill="#f00"><use xlink:href="#d" x="97.371" y="124.249"/><use xlink:href="#b" x="104.386" y="124.249"/></g><path d="M95.39 155.81l5.536 19.952M95.39 155.81l-20.046-5.19M100.926 175.762l20.047 5.187M104.148 171.563l16.04 4.148M75.344 150.62l-5.53-19.952M70.098 149.93l-4.43-15.965M60.828 165.39l14.516-14.77M69.813 130.668l-20.047-5.184M49.766 125.484L35.25 140.25M51.79 130.375L40.175 142.19M35.25 140.25l2.766 9.98" stroke-width="1.2" stroke="#000" stroke-miterlimit="10" fill="none"/><path d="M38.016 150.23l2.765 9.977M40.78 160.207l10.025 2.59" stroke-width="1.2" stroke="#00f" stroke-miterlimit="10" fill="none"/><path d="M50.805 162.797l10.023 2.594" stroke-width="1.2" stroke="#000" stroke-miterlimit="10" fill="none"/><path d="M44.008 156.008l8.02 2.074" stroke-width="1.2" stroke="#00f" stroke-miterlimit="10" fill="none"/><path d="M52.027 158.082l8.02 2.074" stroke-width="1.2" stroke="#000" stroke-miterlimit="10" fill="none"/><path d="M37.78 154.707h7v11h-7zm0 0" fill="#fff"/><use xlink:href="#c" x="37.781" y="163.37" fill="#00f"/></g></svg>
